Papirus/24x24/panel/mintupdate-up-to-date.svg

<?xml version="1.0" encoding="UTF-8" standalone="no"?>
<svg xmlns:dc="http://purl.org/dc/elements/1.1/" xmlns:cc="http://creativecommons.org/ns#" xmlns:rdf="http://www.w3.org/1999/02/22-rdf-syntax-ns#" xmlns:svg="http://www.w3.org/2000/svg" xmlns="http://www.w3.org/2000/svg" version="1.1" id="svg2" height="24" viewBox="0 0 6.7733335 6.7733335" width="24">
    <metadata id="metadata18">
        <rdf:RDF>
            <cc:Work rdf:about="">
                <dc:format>
                    image/svg+xml
                </dc:format>
                <dc:type rdf:resource="http://purl.org/dc/dcmitype/StillImage"/>
                <dc:title/>
            </cc:Work>
        </rdf:RDF>
    </metadata>
    <path id="path4279" d="M 3.3866666,1.1288889 C 2.7804181,1.684804 1.7595497,2.1744908 1.4111111,2.2577777 c 0,1.5051851 0.7408333,3.1358025 1.9755555,3.3866667 C 4.6213888,5.3935802 5.3622222,3.7629628 5.3622222,2.2577777 5.0137836,2.1744908 3.9929152,1.684804 3.3866666,1.1288889 Z M 4.2845964,2.388967 4.6836761,2.7880468 3.4864367,3.9852865 3.0873567,4.3843662 2.6882769,3.9852865 2.0896571,3.3866666 2.4887369,2.9875868 3.0873567,3.5862065 4.2845964,2.388967 Z" style="opacity:1;fill:#ffffff;fill-opacity:1;fill-rule:evenodd;stroke:none"/>
    <g id="g6" transform="matrix(0.28222222,0,0,0.28222222,-10.6045,0.81153005)">
        <g id="g8" transform="matrix(0.42297932,0,0,0.42297932,-11.083711,3.1945516)">
<!--color: #004794-->
        </g>
    </g>
    <g id="g10" style="stroke:#000000;stroke-width:1;stroke-miterlimit:4;stroke-dasharray:none;stroke-opacity:1" transform="matrix(0.28222222,0,0,0.28222222,-10.392658,1.7940939)">
        <g id="g12" style="stroke-width:2.36400008" transform="matrix(0.42297932,0,0,0.42297932,-11.083711,3.1945516)">
<!--color: #004794-->
        </g>
    </g>
</svg>

<?xml version="1.0" encoding="UTF-8" standalone="no"?>
<svg id="svg2" xmlns:rdf="http://www.w3.org/1999/02/22-rdf-syntax-ns#" xmlns="http://www.w3.org/2000/svg" height="24" viewBox="0 0 6.7733335 6.7733335" width="24" version="1.1" xmlns:cc="http://creativecommons.org/ns#" xmlns:dc="http://purl.org/dc/elements/1.1/">
 <metadata id="metadata18">
  <rdf:RDF>
   <cc:Work rdf:about="">
    <dc:format>image/svg+xml</dc:format>
    <dc:type rdf:resource="http://purl.org/dc/dcmitype/StillImage"/>
    <dc:title/>
   </cc:Work>
  </rdf:RDF>
 </metadata>
 <path id="path4279" d="m3.3867 1.1289c-0.6063 0.5559-1.6272 1.0456-1.9756 1.1289 0 1.5052 0.74083 3.1358 1.9756 3.3867 1.2347-0.2509 1.9755-1.8815 1.9755-3.3867-0.3484-0.0833-1.3693-0.573-1.9755-1.1289zm0.8979 1.2601 0.3991 0.399-1.1973 1.1973-0.399 0.3991-0.3991-0.3991-0.5986-0.5986 0.399-0.3991 0.5987 0.5986 1.1972-1.1972z" fill-rule="evenodd" fill="#fff"/>
 <g id="g6" transform="matrix(.28222 0 0 .28222 -10.604 .81153)">
  <g id="g8" transform="matrix(.42298 0 0 .42298 -11.084 3.1946)"><!--color: #004794--></g>
 </g>
 <g id="g10" transform="matrix(.28222 0 0 .28222 -10.393 1.7941)" stroke="#000">
  <g id="g12" stroke-width="2.364" transform="matrix(.42298 0 0 .42298 -11.084 3.1946)"><!--color: #004794--></g>
 </g>
</svg>
